X: 8
T:Mocking Bird Hill
T:Life in the Finnish Woods
T:Livet i Finnskogarna
M:3/4
L:1/4
R:Waltz
Z:http://ca.geocities.com/cfalt@rogers.com/Fiddle/CFtunes1.abc
K:D
A/2G/2|"D"FAd|fdA|"G"GBd|g2c/2B/2|!
"A7"Ace|geg|1"D"fdB|A2:|2"D"fdc|d2||!
|:d/2e/2|"D"f2f/2f/2|gfe|"G"dGB|"D"A2e/2f/2|!
"A7"g3/2 e/2c/2B/2|Ace/2g/2|1"D"fdB|A2:|2"D"fdc|d2|]
